src/assets/images/template_image/12.svg

<svg width="48" height="48" viewBox="0 0 48 48" fill="none" xmlns="http://www.w3.org/2000/svg"><path opacity=".2" d="M24 46C36.1503 46 46 36.1503 46 24 46 11.8497 36.1503 2 24 2 11.8497 2 2 11.8497 2 24 2 36.1503 11.8497 46 24 46z" fill="#7c72f2"/><path d="M31.0137 27.9748C31.0363 27.9902 31.0617 28.006 31.0833 28.0276L35.3674 32.3015C36.2113 33.1473 36.2108 34.522 35.3664 35.3668 34.5231 36.2106 33.1488 36.2116 32.3025 35.3668L28.0271 31.0833C28.0055 31.0622 27.9896 31.0362 27.9685 31.0142 28.5666 30.6283 29.1301 30.1679 29.649 29.6486 30.1684 29.1292 30.6287 28.5667 31.0137 27.9748zM14.9227 14.919C18.8152 11.0272 25.1465 11.0272 29.0384 14.918 32.9299 18.8093 32.9304 25.1457 29.0384 29.0375 25.1465 32.9284 18.8137 32.9284 14.9199 29.038 11.026 25.1457 11.0265 18.8098 14.9227 14.919zM27.2058 16.753C24.3252 13.8735 19.6369 13.8735 16.7554 16.7545 13.8739 19.633 13.8729 24.324 16.7545 27.2054 19.6369 30.0873 24.3247 30.0767 27.2058 27.2044 30.0844 24.3187 30.0854 19.633 27.2058 16.753zM21.9779 17.7461C22.5583 17.7461 23.0282 18.1657 23.0282 18.6821 23.0282 18.8132 22.9961 18.9375 22.9413 19.0508 23.3719 19.2802 23.7406 19.6623 24.0276 20.1423L24.9996 18.8209C25.1369 18.6341 25.3995 18.5943 25.5872 18.7316 25.7739 18.8689 25.8137 19.1319 25.6769 19.3186L24.427 21.0173C24.5225 21.3259 24.5743 21.6639 24.6041 22.0099H25.0711L26.8938 23.8109C27.0589 23.9736 27.0603 24.2395 26.8971 24.4042 26.815 24.4872 26.7065 24.5294 26.5981 24.5294 26.492 24.5294 26.3849 24.4891 26.3029 24.4075L24.726 22.849H24.6041C24.5753 23.1955 24.5225 23.532 24.427 23.8411L25.6769 25.5398C25.8137 25.7275 25.7744 25.9901 25.5872 26.1278 25.5113 26.1825 25.4249 26.2094 25.338 26.2094 25.2089 26.2094 25.0817 26.1504 24.9996 26.0385L24.0276 24.7171C23.5399 25.5331 22.8079 26.0645 21.9779 26.0645 21.148 26.0645 20.4155 25.5326 19.9278 24.7171L18.9563 26.0385C18.8185 26.2257 18.5559 26.2646 18.3683 26.1283 18.1811 25.9905 18.1412 25.728 18.2785 25.5403L19.5284 23.8416C19.4329 23.532 19.3811 23.1955 19.3513 22.8495H19.2294L17.6526 24.408C17.4879 24.5722 17.222 24.5702 17.0593 24.4046 16.8956 24.24 16.8975 23.9736 17.0626 23.8109L18.8848 22.0099H19.3518C19.3811 21.6643 19.4334 21.3264 19.5289 21.0173L18.279 19.3186C18.1417 19.1314 18.182 18.8689 18.3687 18.7316 18.5564 18.5938 18.819 18.6341 18.9568 18.8209L19.9283 20.1423C20.2158 19.6623 20.584 19.2802 21.0141 19.0508 20.9594 18.9375 20.9272 18.8132 20.9272 18.6821 20.9272 18.1657 21.3971 17.7461 21.9779 17.7461z" fill="#7c72f2"/></svg>

<svg width="48" height="48" fill="none" xmlns="http://www.w3.org/2000/svg"><path opacity=".2" d="M24 46c12.15 0 22-9.85 22-22S36.15 2 24 2 2 11.85 2 24s9.85 22 22 22z" fill="#7c72f2"/><path d="M31.014 27.975c.022.015.048.031.07.053l4.283 4.273c.844.846.844 2.221 0 3.066a2.17 2.17 0 01-3.064 0l-4.276-4.284c-.021-.02-.037-.047-.059-.069a10.212 10.212 0 001.681-1.365c.52-.52.98-1.082 1.365-1.674zM14.923 14.919c3.892-3.892 10.223-3.892 14.115-.001 3.892 3.891 3.892 10.228 0 14.12-3.892 3.89-10.224 3.89-14.118 0-3.894-3.892-3.893-10.228.003-14.119zm12.283 1.834c-2.88-2.88-7.57-2.88-10.45.002-2.882 2.878-2.883 7.569-.002 10.45 2.883 2.882 7.57 2.872 10.452 0 2.878-2.886 2.88-7.572 0-10.452zm-5.228.993c.58 0 1.05.42 1.05.936a.844.844 0 01-.087.369c.43.23.8.611 1.087 1.091L25 18.821a.42.42 0 01.677.498l-1.25 1.698c.096.309.147.647.177.993h.467l1.823 1.8a.419.419 0 11-.591.598l-1.577-1.559h-.122a4.699 4.699 0 01-.177.992l1.25 1.699a.421.421 0 01-.677.498l-.972-1.32c-.488.815-1.22 1.346-2.05 1.346-.83 0-1.563-.531-2.05-1.347l-.972 1.322a.42.42 0 01-.678-.498l1.25-1.7a4.775 4.775 0 01-.177-.992h-.122l-1.576 1.559a.419.419 0 11-.59-.597l1.822-1.801h.467c.03-.346.081-.684.177-.993l-1.25-1.698a.42.42 0 11.678-.498l.971 1.321c.288-.48.656-.862 1.086-1.091a.845.845 0 01-.087-.369c0-.516.47-.936 1.05-.936z" fill="#7c72f2"/></svg>
